!!!COM: Bach, Johann Sebastian
!!!OPR: Joh. Seb. Bachs vierstimmige Choralgesänge
!!!XEN: Four-part Chorales
!!!OTL: 78. Herr, ich habe missgehandelt
!!!SCT: BWV 331
!!!SCA: Thematisch-systematisches Verzeichnis der musikalischen Werke Johann Sebastian Bach: Bach-Werke-Verzeichnis (Schmieder)
!!!YOR: Bach Gesellschaft Edition xxxix
!!!ENC: Steven Rasmussen
!!!CDT: 1685/3//-1750/7/28/
!!!OCY: Deutschland
!!!YEC: Copyright (c) 1994, 2000 Center for Computer Assisted Research in the Humanities
!!!YEM: Rights to all derivative editions reserved
!!!YEN: United States of America
**kern	**silbe	**kern	**kern	**kern
*I:[SOPRANO]	*I:[SOPRANO]	*I:[ALTO]	*I:[TENORE]	*I:[BASSO]
*>[A,A,B]	*	*>[A,A,B]	*>[A,A,B]	*>[A,A,B]
*>A	*	*>A	*>A	*>A
*clefG2	*	*clefG2	*clefGv2	*clefF4
*k[]	*	*k[]	*k[]	*k[]
*a:	*	*a:	*a:	*a:
*M4/4	*	*M4/4	*M4/4	*M4/4
=1-	=1-	=1-	=1-	=1-
4a	Herr,ich	4e	4c	4AA
4e	ichbin	4e	4c	8AL
.	.	.	.	8GJ
4a	ha-nicht	4e	(8c	4F#
.	.	.	4A)	.
4b	-beden	4d	.	4Fn
.	.	.	16BLL	.
.	.	.	16AJJ	.
=2	=2	=2	=2	=2
4cc	miss-Weg	4e	4G#	4E
4dd	-ge-ge-	4a	4A	8FL
.	.	.	.	8DJ
2b	-han--wan-	4a	4.e	2E
.	.	4g#	.	.
.	.	.	8d	.
=3	=3	=3	=3	=3
2a;	-delt,-delt,	2e;	2c;	2AA;
4cc	jaden	4a	4e	4A
4b	michdu	4g#	4d	4B
=4	=4	=4	=4	=4
4a	drÃ¼cktmir	4a	4e	4c
4b	derge-	4e	8eL	4G#
.	.	.	8dJ	.
4cc	SÃ¼n--zei-	4e	8cL	8AL
.	.	.	8BJ	8GnJ
4dd	-den-get	4a	4A	4F
=5	=5	=5	=5	=5
1ee;	Last;hast;	1g#;	1B;	1E;
=6:|!	=6:|!	=6:|!	=6:|!	=6:|!
*>B	*	*>B	*>B	*>B
4ee	und	4a	4c	4A
4ff	itzt	4a	4d	8GL
.	.	.	.	8FJ
4gg	wollt'	4g	8dL	4E
.	.	.	8cJ	.
4cc	ich	4a	4c	8FL
.	.	.	.	8EJ
=7	=7	=7	=7	=7
4ff	gern	8aL	8cL	4D
.	.	8a-J	8BJ	.
4ee	aus	4g	4c	8EL
.	.	.	.	8FJ
2dd	Schre-	4.g	4c	2G
.	.	.	4B	.
.	.	8f	.	.
=8	=8	=8	=8	=8
2cc;	-cken	2e;	2G;	2C;
4dd	mich	4g	4B	8GL
.	.	.	.	8FJ
4dd	vor	4g	4B	8EL
.	.	.	.	8DJ
=9	=9	=9	=9	=9
4ee	dei-	4g	8cL	8CL
.	.	.	8GJ	8EJ
4a	-nem	8f#L	4d	8DL
.	.	8eJ	.	8CJ
4dd	Zorn	8f#L	4d	4BB
.	.	8g#J	.	.
4cc	ver-	4a	4e	4AA
=10	=10	=10	=10	=10
2b	-ste-	4a	4.e	2E
.	.	4g#	.	.
.	.	.	8d	.
2a;	-cken.	2e;	2c#;	2AA;
==|!	==|!	==|!	==|!	==|!
*-	*-	*-	*-	*-
!!!RWG: Key is interpreted using the Humdrum key tool.
!!!END: 1994/06/08
!!!EMD: Converted from MuseData to Humdrum Dec 19, 2000, by Andreas Kornstaedt using muse2kern.
!!!EED: Craig Stuart Sapp
!!!EEV: 2024/03/31
!!!ONB: Some non-unicode characters
